Flat-Remix-Dark/apps/scalable/xampp.svg

<svg xmlns="http://www.w3.org/2000/svg" xmlns:xlink="http://www.w3.org/1999/xlink" width="384pt" height="384pt" version="1.1" viewBox="0 0 384 384">
 <defs>
  <filter id="alpha" width="100%" height="100%" x="0%" y="0%" filterUnits="objectBoundingBox">
   <feColorMatrix in="SourceGraphic" type="matrix" values="0 0 0 0 1 0 0 0 0 1 0 0 0 0 1 0 0 0 1 0"/>
  </filter>
  <mask id="mask0">
   <g filter="url(#alpha)">
    <rect width="384" height="384" x="0" y="0" style="fill:rgb(0%,0%,0%);fill-opacity:0.2"/>
   </g>
  </mask>
  <clipPath id="clip1">
   <rect width="384" height="384" x="0" y="0"/>
  </clipPath>
  <g id="surface5" clip-path="url(#clip1)">
   <path style="fill:rgb(0%,0%,0%)" d="M 132 77.996094 C 98.863281 77.996094 72 104.859375 72 137.996094 C 72 171.132812 98.863281 197.996094 132 197.996094 C 98.863281 197.996094 72 224.859375 72 257.996094 C 72 291.132812 98.863281 317.996094 132 317.996094 C 165.136719 317.996094 192 291.132812 192 257.996094 C 191.976562 256.628906 191.90625 255.261719 191.789062 253.894531 C 191.859375 253.902344 191.929688 253.914062 192 253.921875 C 192.046875 253.921875 192.09375 253.921875 192.140625 253.921875 C 192.046875 255.277344 192 256.640625 192 258 C 192 291.136719 218.863281 318 252 318 C 285.136719 318 312 291.136719 312 258 C 312 224.863281 285.136719 198 252 198 C 251.929688 198.007812 251.859375 198.015625 251.789062 198.023438 C 251.789062 198.015625 251.789062 198.007812 251.789062 198 C 251.859375 198 251.929688 198 252 198 C 285.136719 198 312 171.136719 312 138 C 312 104.863281 285.136719 78 252 78 C 220.445312 78 194.28125 102.441406 192.140625 133.921875 C 192.09375 133.921875 192.046875 133.921875 192 133.921875 C 191.929688 133.921875 191.859375 133.921875 191.789062 133.921875 C 189.644531 102.472656 163.527344 78.042969 132.003906 78.003906 Z M 251.886719 113.691406 C 260.050781 113.613281 267.699219 117.6875 272.183594 124.515625 C 276.667969 131.339844 277.375 139.980469 274.058594 147.441406 C 267.027344 163.847656 260.941406 180.515625 248.808594 195.585938 C 236.6875 210.648438 215.90625 222 192 222 C 177.65625 222 177.804688 222.644531 173.929688 227.203125 C 170.058594 231.761719 163.648438 245.515625 153.984375 267.609375 C 150.707031 275.699219 143.292969 281.375 134.621094 282.425781 C 125.953125 283.472656 117.398438 279.734375 112.285156 272.65625 C 107.167969 265.582031 106.300781 256.285156 110.015625 248.382812 C 119.402344 226.929688 124.980469 210.679688 137.339844 196.125 C 149.710938 181.566406 170.339844 173.996094 192 173.996094 C 204.097656 173.996094 206.140625 172.0625 211.429688 165.488281 C 216.722656 158.914062 222.644531 145.589844 229.945312 128.550781 C 233.613281 119.644531 242.25 113.792969 251.882812 113.691406 Z M 132.003906 113.996094 C 145.257812 113.996094 156.003906 124.742188 156.003906 137.996094 C 156.003906 151.253906 145.257812 161.996094 132.003906 161.996094 C 118.75 161.996094 108.003906 151.253906 108.003906 137.996094 C 108.003906 124.742188 118.75 113.996094 132.003906 113.996094 Z M 252.003906 233.996094 C 265.261719 233.996094 276.003906 244.742188 276.003906 257.996094 C 276.003906 271.253906 265.261719 281.996094 252.003906 281.996094 C 238.75 281.996094 228.003906 271.253906 228.003906 257.996094 C 228.003906 244.742188 238.75 233.996094 252.003906 233.996094 Z M 252.003906 233.996094"/>
  </g>
  <mask id="mask1">
   <g filter="url(#alpha)">
    <rect width="384" height="384" x="0" y="0" style="fill:rgb(0%,0%,0%);fill-opacity:0.2"/>
   </g>
  </mask>
  <clipPath id="clip2">
   <rect width="384" height="384" x="0" y="0"/>
  </clipPath>
  <g id="surface8" clip-path="url(#clip2)">
   <path style="fill:rgb(100%,100%,100%)" d="M 42 24 C 32.027344 24 24 32.027344 24 42 L 24 48 C 24 38.027344 32.027344 30 42 30 L 342 30 C 351.972656 30 360 38.027344 360 48 L 360 42 C 360 32.027344 351.972656 24 342 24 Z M 42 24"/>
  </g>
  <mask id="mask2">
   <g filter="url(#alpha)">
    <rect width="384" height="384" x="0" y="0" style="fill:rgb(0%,0%,0%);fill-opacity:0.2"/>
   </g>
  </mask>
  <clipPath id="clip3">
   <rect width="384" height="384" x="0" y="0"/>
  </clipPath>
  <g id="surface11" clip-path="url(#clip3)">
   <path style="fill:rgb(0%,0%,0%)" d="M 24 342 L 24 348 C 24 357.972656 32.027344 366 42 366 L 342 366 C 351.972656 366 360 357.972656 360 348 L 360 342 C 360 351.972656 351.972656 360 342 360 L 42 360 C 32.027344 360 24 351.972656 24 342 Z M 24 342"/>
  </g>
 </defs>
 <g>
  <path style="fill:rgb(99.215686%,49.411765%,0%)" d="M 360 342 L 360 42 C 360 32.058594 351.941406 24 342 24 L 42 24 C 32.058594 24 24 32.058594 24 42 L 24 342 C 24 351.941406 32.058594 360 42 360 L 342 360 C 351.941406 360 360 351.941406 360 342 Z M 360 342"/>
  <use mask="url(#mask0)" xlink:href="#surface5"/>
  <use mask="url(#mask1)" xlink:href="#surface8"/>
  <use mask="url(#mask2)" xlink:href="#surface11"/>
  <path style="fill:rgb(100%,100%,100%)" d="M 132 72 C 98.863281 72 72 98.863281 72 132 C 72 165.136719 98.863281 192 132 192 C 98.863281 192 72 218.863281 72 252 C 72 285.136719 98.863281 312 132 312 C 165.136719 312 192 285.136719 192 252 C 191.976562 250.628906 191.90625 249.261719 191.789062 247.898438 C 191.859375 247.90625 191.929688 247.914062 192 247.921875 C 192.046875 247.921875 192.09375 247.921875 192.140625 247.921875 C 192.046875 249.28125 192 250.640625 192 252.003906 C 192 285.140625 218.863281 312.003906 252 312.003906 C 285.136719 312.003906 312 285.140625 312 252.003906 C 312 218.867188 285.136719 192.003906 252 192.003906 C 251.929688 192.011719 251.859375 192.019531 251.789062 192.027344 C 251.789062 192.019531 251.789062 192.011719 251.789062 192.003906 C 251.859375 192.003906 251.929688 192.003906 252 192.003906 C 285.136719 192.003906 312 165.140625 312 132.003906 C 312 98.867188 285.136719 72.003906 252 72.003906 C 220.445312 72.003906 194.28125 96.445312 192.140625 127.925781 C 192.09375 127.925781 192.046875 127.925781 192 127.925781 C 191.929688 127.925781 191.859375 127.925781 191.789062 127.925781 C 189.644531 96.472656 163.527344 72.046875 132.003906 72.003906 Z M 251.886719 107.695312 C 260.050781 107.613281 267.699219 111.691406 272.183594 118.515625 C 276.667969 125.34375 277.375 133.980469 274.058594 141.445312 C 267.027344 157.847656 260.941406 174.515625 248.808594 189.589844 C 236.6875 204.648438 215.90625 216 192 216 C 177.65625 216 177.804688 216.644531 173.929688 221.203125 C 170.058594 225.761719 163.648438 239.515625 153.984375 261.609375 C 150.707031 269.703125 143.292969 275.378906 134.621094 276.425781 C 125.953125 277.476562 117.398438 273.734375 112.285156 266.660156 C 107.167969 259.585938 106.300781 250.289062 110.015625 242.386719 C 119.402344 220.929688 124.980469 204.683594 137.339844 190.125 C 149.710938 175.570312 170.339844 168 192 168 C 204.097656 168 206.140625 166.066406 211.429688 159.492188 C 216.722656 152.917969 222.644531 139.589844 229.945312 122.554688 C 233.613281 113.648438 242.25 107.796875 251.882812 107.691406 Z M 132.003906 108 C 145.257812 108 156.003906 118.746094 156.003906 132 C 156.003906 145.253906 145.257812 156 132.003906 156 C 118.75 156 108.003906 145.253906 108.003906 132 C 108.003906 118.746094 118.75 108 132.003906 108 Z M 252.003906 228 C 265.261719 228 276.003906 238.746094 276.003906 252 C 276.003906 265.253906 265.261719 276 252.003906 276 C 238.75 276 228.003906 265.253906 228.003906 252 C 228.003906 238.746094 238.75 228 252.003906 228 Z M 252.003906 228"/>
 </g>
</svg>

<svg xmlns="http://www.w3.org/2000/svg" width="384pt" height="384pt" version="1.1" viewBox="0 0 384 384">
 <g transform="matrix(1.40625,0,0,1.40625,-78,-70.5)" style="opacity:0.3">
  <path d="m 132,71.99806 c -33.136717,0 -59.999997,26.86328 -59.999997,60 0,33.13672 26.86328,60 59.999997,60 -33.136717,0 -59.999997,26.86327 -59.999997,59.99999 0,33.13673 26.86328,60 59.999997,60 33.13672,0 60,-26.86327 60,-60 -0.0234,-1.37109 -0.0937,-2.73828 -0.21095,-4.10155 0.0703,0.008 0.14064,0.0156 0.21095,0.0234 0.0469,0 0.0937,0 0.14062,0 -0.0937,1.35937 -0.14062,2.71875 -0.14062,4.08204 0,33.13671 26.86328,60 60,60 33.13673,0 60,-26.86329 60,-60 0,-33.13672 -26.86327,-60 -60,-60 -0.0703,0.008 -0.14062,0.0156 -0.21093,0.0234 0,-0.008 0,-0.0156 0,-0.0234 0.0703,0 0.14063,0 0.21093,0 33.13673,0 60,-26.86329 60,-60 0,-33.13673 -26.86327,-60.00001 -60,-60.00001 -31.55468,0 -57.71875,24.44141 -59.85938,55.92188 -0.0469,0 -0.0937,0 -0.14062,0 -0.0703,0 -0.14063,0 -0.21094,0 C 189.64453,96.47068 163.52734,72.0449 132.00391,72.00193 Z m 119.88672,35.69531 c 8.16407,-0.082 15.81251,3.9961 20.29688,10.82032 4.48437,6.82812 5.19141,15.46484 1.875,22.92968 -7.03125,16.40234 -13.11719,33.07031 -25.25001,48.14453 -12.12108,15.05859 -32.90233,26.41016 -56.80859,26.41016 -14.34375,0 -14.19531,0.64453 -18.07031,5.20312 -3.8711,4.55859 -10.28125,18.31249 -19.94532,40.40625 -3.27734,8.09374 -10.6914,13.76953 -19.36328,14.8164 -8.66796,1.05079 -17.22265,-2.69141 -22.33593,-9.76562 -5.11719,-7.07422 -5.98438,-16.37109 -2.26953,-24.27343 9.38671,-21.45703 14.96484,-37.70313 27.32421,-52.26172 12.3711,-14.5547 33,-22.125 54.66016,-22.125 12.09766,0 14.14062,-1.93359 19.4297,-8.50782 5.29296,-6.57422 11.21484,-19.90234 18.51561,-36.93749 3.66798,-8.90625 12.30469,-14.75781 21.9375,-14.86328 z m -119.88281,0.30469 c 13.2539,0 24,10.74609 24,24 0,13.25391 -10.7461,24 -24,24 -13.25391,0 -24,-10.74609 -24,-24 0,-13.25391 10.74609,-24 24,-24 z m 120.00001,119.99999 c 13.25781,0 24,10.74609 24,24 0,13.25391 -10.74219,24 -24,24 -13.25391,0 -24,-10.74609 -24,-24 0,-13.25391 10.74609,-24 24,-24 z m 0,0"/>
  <path d="m 132,71.99806 c -33.136719,0 -60,26.863281 -60,60 0,33.13672 26.863281,60 60,60 -33.136719,0 -60,26.86328 -60,60 0,33.13672 26.863281,60 60,60 33.13672,0 60,-26.86328 60,-60 -0.0234,-1.37109 -0.0937,-2.73828 -0.21094,-4.10156 0.0703,0.008 0.14063,0.0156 0.21094,0.0234 0.0469,0 0.0937,0 0.14062,0 -0.0937,1.35938 -0.14062,2.71875 -0.14062,4.08204 0,33.13671 26.86328,60 60,60 33.13672,0 60,-26.86329 60,-60 0,-33.13672 -26.86328,-60 -60,-60 -0.0703,0.008 -0.14063,0.0156 -0.21094,0.0234 0,-0.008 0,-0.0156 0,-0.0234 0.0703,0 0.14063,0 0.21094,0 33.13672,0 60,-26.86329 60,-60 0,-33.136722 -26.86328,-60.000004 -60,-60.000004 -31.55469,0 -57.71875,24.441406 -59.85938,55.921874 -0.0469,0 -0.0937,0 -0.14062,0 -0.0703,0 -0.14063,0 -0.21094,0 -2.14453,-31.453124 -28.26172,-55.878905 -59.78515,-55.921874 z m 119.88672,35.69531 c 8.16406,-0.082 15.8125,3.9961 20.29687,10.82032 4.48438,6.82812 5.19141,15.46484 1.875,22.92968 -7.03125,16.40235 -13.11718,33.07031 -25.25,48.14453 -12.12109,15.0586 -32.90234,26.41016 -56.80859,26.41016 -14.34375,0 -14.19531,0.64453 -18.07031,5.20312 -3.8711,4.5586 -10.28125,18.3125 -19.94532,40.40625 -3.27734,8.09375 -10.6914,13.76954 -19.36328,14.81641 -8.66796,1.05078 -17.22265,-2.69141 -22.33593,-9.76562 -5.11719,-7.07422 -5.98438,-16.3711 -2.26953,-24.27344 9.38671,-21.45703 14.96484,-37.70313 27.32421,-52.26172 12.3711,-14.55469 33,-22.125 54.66016,-22.125 12.09766,0 14.14062,-1.93359 19.42969,-8.50781 5.29297,-6.57422 11.21484,-19.90235 18.51562,-36.9375 3.66797,-8.90625 12.30469,-14.75781 21.9375,-14.86328 z m -119.88281,0.30469 c 13.2539,0 24,10.74609 24,24 0,13.25391 -10.7461,24 -24,24 -13.25391,0 -24,-10.74609 -24,-24 0,-13.25391 10.74609,-24 24,-24 z m 120,120 c 13.25781,0 24,10.74609 24,24 0,13.25391 -10.74219,24 -24,24 -13.25391,0 -24,-10.74609 -24,-24 0,-13.25391 10.74609,-24 24,-24 z m 0,0"/>
 </g>
 <g transform="matrix(1.40625,0,0,1.40625,-78,-78)" style="fill:#fd7d00">
  <path style="fill:#fd7d00" d="m 132,71.99806 c -33.136717,0 -59.999997,26.86328 -59.999997,60 0,33.13672 26.86328,60 59.999997,60 -33.136717,0 -59.999997,26.86327 -59.999997,59.99999 0,33.13673 26.86328,60 59.999997,60 33.13672,0 60,-26.86327 60,-60 -0.0234,-1.37109 -0.0937,-2.73828 -0.21095,-4.10155 0.0703,0.008 0.14064,0.0156 0.21095,0.0234 0.0469,0 0.0937,0 0.14062,0 -0.0937,1.35937 -0.14062,2.71875 -0.14062,4.08204 0,33.13671 26.86328,60 60,60 33.13673,0 60,-26.86329 60,-60 0,-33.13672 -26.86327,-60 -60,-60 -0.0703,0.008 -0.14062,0.0156 -0.21093,0.0234 0,-0.008 0,-0.0156 0,-0.0234 0.0703,0 0.14063,0 0.21093,0 33.13673,0 60,-26.86329 60,-60 0,-33.13673 -26.86327,-60.00001 -60,-60.00001 -31.55468,0 -57.71875,24.44141 -59.85938,55.92188 -0.0469,0 -0.0937,0 -0.14062,0 -0.0703,0 -0.14063,0 -0.21094,0 C 189.64453,96.47068 163.52734,72.0449 132.00391,72.00193 Z m 119.88672,35.69531 c 8.16407,-0.082 15.81251,3.9961 20.29688,10.82032 4.48437,6.82812 5.19141,15.46484 1.875,22.92968 -7.03125,16.40234 -13.11719,33.07031 -25.25001,48.14453 -12.12108,15.05859 -32.90233,26.41016 -56.80859,26.41016 -14.34375,0 -14.19531,0.64453 -18.07031,5.20312 -3.8711,4.55859 -10.28125,18.31249 -19.94532,40.40625 -3.27734,8.09374 -10.6914,13.76953 -19.36328,14.8164 -8.66796,1.05079 -17.22265,-2.69141 -22.33593,-9.76562 -5.11719,-7.07422 -5.98438,-16.37109 -2.26953,-24.27343 9.38671,-21.45703 14.96484,-37.70313 27.32421,-52.26172 12.3711,-14.5547 33,-22.125 54.66016,-22.125 12.09766,0 14.14062,-1.93359 19.4297,-8.50782 5.29296,-6.57422 11.21484,-19.90234 18.51561,-36.93749 3.66798,-8.90625 12.30469,-14.75781 21.9375,-14.86328 z m -119.88281,0.30469 c 13.2539,0 24,10.74609 24,24 0,13.25391 -10.7461,24 -24,24 -13.25391,0 -24,-10.74609 -24,-24 0,-13.25391 10.74609,-24 24,-24 z m 120.00001,119.99999 c 13.25781,0 24,10.74609 24,24 0,13.25391 -10.74219,24 -24,24 -13.25391,0 -24,-10.74609 -24,-24 0,-13.25391 10.74609,-24 24,-24 z m 0,0"/>
  <path style="fill:#fd7d00" d="m 132,71.99806 c -33.136719,0 -60,26.863281 -60,60 0,33.13672 26.863281,60 60,60 -33.136719,0 -60,26.86328 -60,60 0,33.13672 26.863281,60 60,60 33.13672,0 60,-26.86328 60,-60 -0.0234,-1.37109 -0.0937,-2.73828 -0.21094,-4.10156 0.0703,0.008 0.14063,0.0156 0.21094,0.0234 0.0469,0 0.0937,0 0.14062,0 -0.0937,1.35938 -0.14062,2.71875 -0.14062,4.08204 0,33.13671 26.86328,60 60,60 33.13672,0 60,-26.86329 60,-60 0,-33.13672 -26.86328,-60 -60,-60 -0.0703,0.008 -0.14063,0.0156 -0.21094,0.0234 0,-0.008 0,-0.0156 0,-0.0234 0.0703,0 0.14063,0 0.21094,0 33.13672,0 60,-26.86329 60,-60 0,-33.136722 -26.86328,-60.000004 -60,-60.000004 -31.55469,0 -57.71875,24.441406 -59.85938,55.921874 -0.0469,0 -0.0937,0 -0.14062,0 -0.0703,0 -0.14063,0 -0.21094,0 -2.14453,-31.453124 -28.26172,-55.878905 -59.78515,-55.921874 z m 119.88672,35.69531 c 8.16406,-0.082 15.8125,3.9961 20.29687,10.82032 4.48438,6.82812 5.19141,15.46484 1.875,22.92968 -7.03125,16.40235 -13.11718,33.07031 -25.25,48.14453 -12.12109,15.0586 -32.90234,26.41016 -56.80859,26.41016 -14.34375,0 -14.19531,0.64453 -18.07031,5.20312 -3.8711,4.5586 -10.28125,18.3125 -19.94532,40.40625 -3.27734,8.09375 -10.6914,13.76954 -19.36328,14.81641 -8.66796,1.05078 -17.22265,-2.69141 -22.33593,-9.76562 -5.11719,-7.07422 -5.98438,-16.3711 -2.26953,-24.27344 9.38671,-21.45703 14.96484,-37.70313 27.32421,-52.26172 12.3711,-14.55469 33,-22.125 54.66016,-22.125 12.09766,0 14.14062,-1.93359 19.42969,-8.50781 5.29297,-6.57422 11.21484,-19.90235 18.51562,-36.9375 3.66797,-8.90625 12.30469,-14.75781 21.9375,-14.86328 z m -119.88281,0.30469 c 13.2539,0 24,10.74609 24,24 0,13.25391 -10.7461,24 -24,24 -13.25391,0 -24,-10.74609 -24,-24 0,-13.25391 10.74609,-24 24,-24 z m 120,120 c 13.25781,0 24,10.74609 24,24 0,13.25391 -10.74219,24 -24,24 -13.25391,0 -24,-10.74609 -24,-24 0,-13.25391 10.74609,-24 24,-24 z m 0,0"/>
 </g>
</svg>
